!!!SOCIAL_FUNCTION:	songs of the moccasin game
!!!PDT:	1918

Specific Region: Dakotas, Minnesota, Montana, Nebraska
!!!REG: Dakotas and Montana
!!!LING_GROUP: Siouan
!!!LANG: Tone
!!!OTL@ENG: Song of the Moccasin Game (a)
!!!ONM: No. 206
**kern
*Imale
*clefG2
*k[f#c#]
*M2/4
*>[A,A]
*>norep[A]
*>A
=1!|:
*MM92
8f#
8f#
8f#
8f#
=2
8g
16f#
16f#
12e
12d
12B
=3
8f#
8f#
8f#
8r
=4
8g
16f#
16f#
12e
12d
12r
*>A3
=5
!! ending 3
8d
8d
8d
8d
=6
8e
16d
16d
12B
12B
12G
=7
8B
8B
8B
8r
=8||
*M3/4
8c#
16B
16B
8B
8B
8.G
16G
=9||
*M2/4
2G
=10
8d
8d
8d
8d
=11
8f#
16d
16d
12B
12B
12G
=12
8B
8B
8B
8r
=13||
*M3/4
8c#
16B
16B
8B
8B
8.G
16G
=14||
*M2/4
4G
4r
==:|!
*-
!!!CNT: Native American -- Sioux
!!!MRD: 1911/07//-1914///
!!!OCL: Frances Densmore
!!!YOR1: Teton Sioux Music, Bulletin 61,
!!!YOR2: Bureau of American Ethnology, Smithsonian Institution
!!!PPR: Government Printing Office
!!!PPP: Washington, D.C.
!!!PDT: 1918///
!!!ENC: Craig Stuart Sapp
!!!END: 2002/03/25/
!!!EEV: 2002/03/31/
!!!AGN: Game Song
!!!MPN@@SIO: Chetang'-hota
!!!MPN@ENG: Gray Hawk
!!!TXO: Teton Sioux
!!!MLC: Standing Rock Reservation, South Dakota, United States of America
!!!ARL: 45.9/-100.7#
!!!catalog: Catalogue No. 551
!!!PPG: 486
!!!EFL: 211/245
!! ending 3
!!!VTS: 1710826179
